X:1
T:Happy Faces, 11.11.11.11
T:Happy Faces, 11.11.11.11
T:Hart Pease Danks, 1893
T:Public Domain Courtesy of the Cyber Hymnal™
C:Hart Pease Danks, 1893
Z:Public Domain
Z:Courtesy of the Cyber Hymnal™
%%score ( 1 2 ) ( 3 4 )
L:1/8
M:4/4
K:C
V:1 treble 
V:2 treble 
V:3 bass 
V:4 bass 
V:1
 [EG]2 [CE]2 [EG]2 [Ec]2 | [Ee]4 [Ec]4 | [Fc]2 [FB]2 [Fc]2 [FA]2 | [EG]8 | %4
 [EG]2 [DF]2 [Fd]2 [DF]2 | [CE]4 (G2 A2) | [EB]2 [EB]2 [^DB]2 [DB]2 | B8 | %8
 [Ec]2 [CE]2 [EG]2 [Ec]2 | (c2 BA) [FB]4 | [Fd]2 [FB]2 [FA]2 [FG]2 | G4 c4 | %12
 [Ee]2 [Ee]2 [Ed]2 [Ec]2 | [Fc]4 ([GB]2 [FA]2) | [EG]2 [Ec]2 [Fc]2 [FB]2 | [Ec]8 |] %16
V:2
 x8 | x8 | x8 | x8 | x8 | x4 E4 | x8 | (E4 F4) | x8 | F4 x4 | x8 | E8 | x8 | x8 | x8 | x8 |] %16
V:3
 [C,G,]2 [C,G,]2 [C,G,]2 [C,G,]2 | [C,G,]4 [C,G,]4 | [F,A,]2 [F,^G,]2 [F,A,]2 [F,C]2 | (C4 G,4) | %4
 [G,,G,]2 [G,,G,]2 [G,,G,]2 [G,,G,]2 | [C,G,]4 [C,G,]4 | [B,,G,]2 [B,,G,]2 [B,,^F,]2 [B,,F,]2 | %7
 G,8 | [C,G,]2 [C,G,]2 [C,G,]2 [C,G,]2 | [D,G,]4 [D,G,]4 | [G,,G,]2 [G,,G,]2 [G,,G,]2 [G,,G,]2 | %11
 [C,G,]8 | [C,G,]2 [C,G,]2 [C,G,]2 [C,G,]2 | [F,A,]4 (B,2 C2) | [G,C]2 [G,C]2 [G,C]2 [G,C]2 | %15
 [C,C]8 |] %16
V:4
 x8 | x8 | x8 | C,8 | x8 | x8 | x8 | (E,4 D,4) | x8 | x8 | x8 | x8 | x8 | x4 F,4 | x8 | x8 |] %16

